X:147
T:Yellow Hair'd Laddie. LW.147
M:3/4
Q:3/4=50
L:1/8
B:Lionel Winship MS, 1833, Wark, Northumberland
Z:Village Music Project 2017 Anne Wride
K:D
D>E | F2A2 B>c | d3ef2 | A2 (BA)(GF) | {EF}E4 DE |
F2A2Bc | d>cd>e {e}f2 | A2 GFED | D4 :|
|:de|fagfed | e2 dcBA | Bc e/d/c/B/ B/A/G/F/ | F3{G/F/}E DE |
F2A2 Bc | dcde {d}f2 | A2 gfed {ef}| d4 :|

